X:1
T: Miss Brander
C:
R:Reel
Q: 232
K:Dm
M:4/4
L:1/8
|:E|D1/2E1/2F ED df ed|cA GF EC CE|D1/2E1/2F ED df ed|cA GE AD DE|
D1/2E1/2F ED df ed|cA GF EC CE|D1/2E1/2F ED df ed|cA GE AD De|
fe de f1/2g1/2a gf|ec gc ac gc|fe de f1/2g1/2a ge|fd e^c dD De|
fe de f1/2g1/2a gf|ec gc ac gc|fa ^ga fd ^cA|df e^c dD D:|
